tools/download-figma-icons/icons/outlined-large/paperplane.svg

<svg width="64" height="64" viewBox="0 0 64 64" fill="none" xmlns="http://www.w3.org/2000/svg">
<path fill-rule="evenodd" clip-rule="evenodd" d="M50.9652 47.9737L39.5443 43.8277C39.5163 43.8167 39.4883 43.8047 39.4593 43.7957L31.4133 40.8747L59.7502 11.4968L50.9652 47.9737ZM26.8593 52.6837L29.7003 43.4427L35.9333 45.7047L26.8593 52.6837ZM51.4442 15.7868L27.6513 40.4537C27.5673 40.5407 27.4943 40.6387 27.4343 40.7437C27.4093 40.7867 27.3963 40.8327 27.3753 40.8767C27.3483 40.9357 27.3163 40.9927 27.2973 41.0537L23.9323 51.9947L18.8653 37.8547L51.4442 15.7868ZM49.5592 13.4398L19.4553 33.8307L16.8533 35.5937L5.65232 31.5277L49.5592 13.4398ZM63.9582 6.83677C63.9722 6.78177 63.9632 6.72777 63.9702 6.67177C63.9802 6.59577 63.9882 6.52377 63.9862 6.44777C63.9862 6.40677 63.9922 6.36577 63.9882 6.32477C63.9842 6.28177 63.9642 6.24177 63.9562 6.19977C63.9522 6.18077 63.9462 6.16378 63.9422 6.14678C63.9272 6.07878 63.9162 6.01478 63.8912 5.95078C63.8742 5.90778 63.8582 5.86678 63.8372 5.82478C63.8292 5.80878 63.8302 5.79078 63.8212 5.77578C63.7992 5.73478 63.7622 5.70778 63.7362 5.66978C63.7272 5.65578 63.7182 5.63978 63.7082 5.62578C63.6842 5.59178 63.6752 5.55178 63.6482 5.51978C63.6422 5.51278 63.6342 5.50978 63.6282 5.50378C63.5982 5.46878 63.5612 5.44278 63.5282 5.41078C63.4732 5.35778 63.4142 5.31678 63.3532 5.27278C63.3072 5.24078 63.2722 5.19778 63.2222 5.16978C63.2212 5.16978 63.2202 5.16978 63.2202 5.16878C63.2102 5.16378 63.1992 5.16378 63.1912 5.15978C63.1622 5.14478 63.1322 5.14178 63.1042 5.12878C63.0312 5.09678 62.9592 5.07278 62.8832 5.05178C62.8312 5.03778 62.7822 5.01578 62.7302 5.00678C62.6852 4.99978 62.6412 5.00678 62.5962 5.00378C62.5242 4.99978 62.4532 4.99778 62.3802 5.00378C62.3262 5.00778 62.2752 5.00978 62.2222 5.01978C62.1632 5.03178 62.1102 5.05478 62.0522 5.07278C62.0112 5.08578 61.9692 5.08178 61.9292 5.09878L0.929331 30.2287C0.356332 30.4637 -0.0126673 31.0287 0.000332688 31.6477C0.0143327 32.2667 0.406332 32.8137 0.988331 33.0257L15.8863 38.4347L22.6283 57.2507C22.6383 57.2777 22.6563 57.2977 22.6683 57.3237C22.7033 57.4077 22.7473 57.4867 22.7993 57.5647C22.8533 57.6457 22.9143 57.7157 22.9823 57.7847C23.0293 57.8327 23.0743 57.8827 23.1273 57.9237C23.1813 57.9657 23.2393 57.9977 23.2983 58.0327C23.3573 58.0667 23.4163 58.0957 23.4783 58.1207C23.5393 58.1467 23.6003 58.1697 23.6643 58.1867C23.7473 58.2077 23.8313 58.2187 23.9163 58.2257C23.9583 58.2297 23.9973 58.2447 24.0403 58.2447H24.0743C24.4033 58.2377 24.7083 58.1217 24.9553 57.9317C24.9563 57.9307 24.9573 57.9307 24.9583 57.9297L39.2763 46.9187L51.5202 51.3657C51.6852 51.4257 51.8582 51.4547 52.0302 51.4547C52.2762 51.4547 52.5202 51.3947 52.7402 51.2767C53.1162 51.0747 53.3892 50.7217 53.4882 50.3067L63.9562 6.84377L63.9582 6.83677Z" fill="black"/>
</svg>

<svg xmlns="http://www.w3.org/2000/svg" width="64" height="64" fill="none" viewBox="0 0 64 64"><path fill="currentColor" fill-rule="evenodd" d="m50.965 47.974-11.42-4.146q-.043-.018-.086-.032l-8.046-2.921L59.75 11.497zm-24.106 4.71 2.841-9.241 6.233 2.262zm24.585-36.897L27.651 40.454a1.5 1.5 0 0 0-.217.29c-.025.043-.038.089-.059.133-.027.059-.059.116-.078.177l-3.365 10.94-5.067-14.14zM49.56 13.44 19.455 33.83l-2.602 1.764-11.2-4.066zm14.4-6.603c.013-.055.004-.11.011-.165.01-.076.018-.148.016-.224 0-.041.006-.082.002-.123-.004-.043-.024-.083-.032-.125l-.014-.053c-.015-.068-.026-.132-.05-.196q-.025-.064-.055-.126c-.008-.016-.007-.034-.016-.05-.022-.04-.059-.067-.085-.105l-.028-.044c-.024-.034-.033-.074-.06-.106l-.02-.016c-.03-.035-.067-.061-.1-.093-.055-.053-.114-.094-.175-.138-.046-.032-.08-.075-.13-.103l-.003-.001c-.01-.005-.02-.005-.029-.01-.029-.014-.059-.017-.087-.03a2 2 0 0 0-.22-.077c-.053-.014-.102-.036-.154-.045-.045-.007-.089 0-.134-.003a2 2 0 0 0-.216 0c-.054.004-.105.006-.158.016-.059.012-.112.035-.17.053-.04.013-.083.009-.123.026l-61 25.13a1.5 1.5 0 0 0 .06 2.797l14.897 5.409 6.742 18.816c.01.027.028.047.04.073a1.4 1.4 0 0 0 .314.46c.047.049.092.099.145.14.054.042.112.074.171.109q.088.05.18.088.09.04.186.066.125.03.252.039c.042.004.081.019.124.019h.034c.33-.007.634-.123.881-.313l.003-.002 14.318-11.011 12.244 4.447a1.5 1.5 0 0 0 1.968-1.059L63.956 6.844z" clip-rule="evenodd"/></svg>
